!!!COM: Bach, Johann Sebastian
!!!CDT: 1685/3//-1750/7/28/
!!!OTL@@DE: Nun ruhen alle Waelder
!!!OTL@EN:  Now rests all the forest
!!!AGN: 4-Part Chorale
!!!SCT: BH 117
!!!SCT: BWV 244
**harm	**root	**kern	**kern	**kern	**kern
!	!	!bass	!tenor	!alto	!soprno
*	*Iorgan	*Iorgan	*Iorgan	*Iorgan	*Iorgan
*M4/4	*M4/4	*M4/4	*M4/4	*M4/4	*M4/4
*met(c)	*met(c)	*met(c)	*met(c)	*met(c)	*met(c)
*MM60	*MM60	*MM60	*MM60	*MM60	*MM60
*k[]	*k[]	*k[]	*k[]	*k[]	*k[]
*C:	*C:	*C:	*C:	*C:	*C:
I	4AA-	4c	4g	4cc	4ee
=1	=1	=1	=1	=1	=1
IV	4DD-	8f	4f	4a	4cc
.	.	8e	.	.	.
viiob	4GG	4d	4f	4b	4dd
I	4AA-	4.c	8g	8cc	8ee
.	.	.	8f	8dd	8ff
I	4AA-	.	8e	4ee	4gg
.	.	8B	8d	.	.
=2	=2	=2	=2	=2	=2
IV7b	4DD-	4A	4c	4ee	2ff
V7b	4EE-	4B	4g	4dd	.
I;	4AA-;	4c;	4g;	4cc;	4ee;
vi	4FF	4A	4a	4cc	8ee
.	.	.	.	.	8ff
=3	=3	=3	=3	=3	=3
Ib	4AA-	8E	4g	8cc	4gg
.	.	8D	.	8b	.
Ib	4AA-	8E	4g	8cc	4gg
.	.	8F	.	8a	.
V	4EE-	8G	4g	8b	4dd
.	.	8F	.	8a	.
iii	4CC	4E	4B	4g	4ee
=4	=4	=4	=4	=4	=4
viib/V	2DD	2A	8c	4g	2cc
.	.	.	8B	.	.
.	.	.	4c	4f#	.
V;	4EE-;	4G;	4d;	4g;	4b;
V7d	4EE-	4Fy	8B	4d	4g
.	.	.	8A	.	.
=5	=5	=5	=5	=5	=5
Ib	4AA-	4E	4G	4g	4cc
ii	4BB-	4D	8A	4f	4dd
.	.	.	8B	.	.
I	4AA-	8C	4c	8e	4ee
.	.	8D	.	8f	.
Ib	4AA-	8E	4c	4g	4ee
.	.	8F	.	.	.
=6	=6	=6	=6	=6	=6
V;	2.EE-;	2.G;	2.B;	2.g;	2.dd;
Vb/vi	4CC	4G#	4e	4b	4ee
!!linebreak: 2
=7	=7	=7	=7	=7	=7
vi	4FF	4A	8e	4a	4cc
.	.	.	8f	.	.
Vb	4EE-	4B	8e	4g	4dd
.	.	.	8d	.	.
I	4AA-	4c	8c	4g	8ee
.	.	.	8d	.	8ff
V7b/II	4FF	4c#	4e	4a	4gg
=8	=8	=8	=8	=8	=8
ii	2BB-	4d	8d	8a	2ff
.	.	.	8e	8g	.
.	.	4D	8f	8a	.
.	.	.	8g	8b	.
VI;	4FF;	4A;	4a;	4cc#;	4ee;
vi	4FF	4A	4a	4cc	8ee
.	.	.	.	.	8ff
=9	=9	=9	=9	=9	=9
Vb	4EE-	4B	8g	4dd	4gg
.	.	.	8f	.	.
I	4AA-	4c	4e	8cc	4gg
.	.	.	.	8b	.
V7d/V	4BB-	8c	4f#	4a	4dd
.	.	8B	.	.	.
III	4CC	8A	4B	4b	4ee
.	.	8G#	.	.	.
=10	=10	=10	=10	=10	=10
vi	4FF	8A	2e	4b	2cc
.	.	8B	.	.	.
vib	4FF	8c	.	4a	.
.	.	8d	.	.	.
III;	4CC;	4e;	4e;	4g#;	4b;
iii	4CC	4E	4e	4g	4g
=11	=11	=11	=11	=11	=11
vi7	8FF	4A	8e	8g	4cc
IVc	8DD-	.	8f	8a	.
iii7c	8CC	4B	8e	8g	4dd
viio	8GG	.	8d	8f	.
I	4AA-	8c	4c	8e	4ee
.	.	8B	.	8g	.
IVb	4DD-	8A	4c	8a	4ff
.	.	8G	.	8b	.
=12	=12	=12	=12	=12	=12
IV7	4DD-	4F	4a	4cc	4ee
V	4EE-	4G	8d	4b	4dd
.	.	.	16e	.	.
.	.	.	16f	.	.
I;	4AA-;	4C;	4e;	4g;	4cc;
==	==	==	==	==	==
*-	*-	*-	*-	*-	*-
!!chor2scor: -l 2 -s 0.6 -o %b.pmx
!!!YEC: Copyright 1994, David Huron
!!!YEC: Changes/Additions 2001 by Craig Stuart Sapp
!!!YEN: United States of America
!!!SMA: 371 Bach Chorales, edited by Ludwig Erk, C.F. Peters
!!!PDT: 1850, 1865
!!!ONB: Harmony and Root analysis done manually
